build/Karasa-Jaga/scalable/apps/cheese-symbolic.svg

<svg height="16" viewBox="0 0 4.2333332 4.2333332" width="16" xmlns="http://www.w3.org/2000/svg"><g fill="#bebebe" transform="translate(0 -292.76667)"><ellipse cx="2.116667" cy="294.35895" rx=".233324" ry=".227467"/><path d="m2.1166667 292.76667c-.8793918 0-1.59227699.71287-1.59227699 1.59227 0 .87939.71288519 1.59227 1.59227699 1.59227.8793917 0 1.5922769-.71288 1.5922769-1.59227 0-.8794-.7128852-1.59227-1.5922769-1.59227zm0 .90988c.3773924 0 .6824044.30552.6824044.68239 0 .37688-.305012.68242-.6824044.68242s-.6824044-.30554-.6824044-.68242c0-.37687.305012-.68239.6824044-.68239z"/><g transform="matrix(.26458333 0 0 .26458333 0 292.76667)"><path d="m7.3378906 12.886719v2.867187c0 .109799.1191853.199219.2675782.199219h.6777343c.1483929 0 .2675781-.08942.2675781-.199219v-2.861328c-.1823252.013799-.3649233.027344-.5507812.027344-.2234306 0-.4438575-.013335-.6621094-.033203z"/><path d="m4.84375 12.185547-3.0195312 2.703125c-.1343752.120243-.1634079.305433-.0644532.416016l.5273438.589843c.0989547.110582.2874998.102665.421875-.017578l3.4667968-3.103515c.026019-.023283.0289508-.054854.046875-.082032-.4815383-.122145-.9414587-.292385-1.3789062-.505859z"/><path d="m11.15625 12.185547c-.437447.213474-.897368.383714-1.3789062.505859.0179242.027178.020856.058749.046875.082032l3.4667972 3.103515c.134375.120243.32292.12816.421875.017578l.527343-.589843c.098955-.110583.069922-.295773-.064453-.416016z"/></g></g></svg>

<?xml version="1.0" encoding="UTF-8" standalone="no"?>
<!-- Created with Inkscape (http://www.inkscape.org/) -->

<svg
   xmlns:dc="http://purl.org/dc/elements/1.1/"
   xmlns:cc="http://creativecommons.org/ns#"
   xmlns:rdf="http://www.w3.org/1999/02/22-rdf-syntax-ns#"
   xmlns:svg="http://www.w3.org/2000/svg"
   xmlns="http://www.w3.org/2000/svg"
   xmlns:sodipodi="http://sodipodi.sourceforge.net/DTD/sodipodi-0.dtd"
   xmlns:inkscape="http://www.inkscape.org/namespaces/inkscape"
   width="16"
   height="16"
   viewBox="0 0 4.2333332 4.2333332"
   version="1.1"
   id="svg827"
   inkscape:version="0.92.2 (unknown)"
   sodipodi:docname="org.gnome.Cheese-symbolic.svg">
  <defs
     id="defs821" />
  <sodipodi:namedview
     id="base"
     pagecolor="#ffffff"
     bordercolor="#666666"
     borderopacity="1.0"
     inkscape:pageopacity="0.0"
     inkscape:pageshadow="2"
     inkscape:zoom="3.959798"
     inkscape:cx="-25.891215"
     inkscape:cy="-6.6224595"
     inkscape:document-units="mm"
     inkscape:current-layer="layer1"
     showgrid="false"
     units="px"
     inkscape:snap-global="false"
     inkscape:window-width="1366"
     inkscape:window-height="716"
     inkscape:window-x="0"
     inkscape:window-y="27"
     inkscape:window-maximized="1" />
  <metadata
     id="metadata824">
    <rdf:RDF>
      <cc:Work
         rdf:about="">
        <dc:format>image/svg+xml</dc:format>
        <dc:type
           rdf:resource="http://purl.org/dc/dcmitype/StillImage" />
        <dc:title></dc:title>
      </cc:Work>
    </rdf:RDF>
  </metadata>
  <g
     inkscape:label="Layer 1"
     inkscape:groupmode="layer"
     id="layer1"
     transform="translate(0,-292.76667)">
    <ellipse
       ry="0.22746705"
       rx="0.23332408"
       cy="294.35895"
       cx="2.1166666"
       id="path10037"
       style="color:#000000;font-family:'Bitstream Vera Sans';display:inline;overflow:visible;visibility:visible;fill:#bebebe;fill-opacity:1;fill-rule:nonzero;stroke:none;stroke-width:0.12935434;marker:none" />
    <path
       inkscape:connector-curvature="0"
       d="m 2.1166667,292.76667 c -0.8793918,0 -1.59227699,0.71287 -1.59227699,1.59227 0,0.87939 0.71288519,1.59227 1.59227699,1.59227 0.8793917,0 1.5922769,-0.71288 1.5922769,-1.59227 0,-0.8794 -0.7128852,-1.59227 -1.5922769,-1.59227 z m 0,0.90988 c 0.3773924,0 0.6824044,0.30552 0.6824044,0.68239 0,0.37688 -0.305012,0.68242 -0.6824044,0.68242 -0.3773924,0 -0.6824044,-0.30554 -0.6824044,-0.68242 0,-0.37687 0.305012,-0.68239 0.6824044,-0.68239 z"
       id="path22411"
       style="display:inline;fill:#bebebe;fill-opacity:1;stroke:none;stroke-width:0.45493627" />
    <path
       style="opacity:1;fill:#bebebe;fill-opacity:1;stroke:none;stroke-width:1.06072938"
       d="M 7.3378906 12.886719 L 7.3378906 15.753906 C 7.3378906 15.863705 7.4570759 15.953125 7.6054688 15.953125 L 8.2832031 15.953125 C 8.431596 15.953125 8.5507812 15.863705 8.5507812 15.753906 L 8.5507812 12.892578 C 8.368456 12.906377 8.1858579 12.919922 8 12.919922 C 7.7765694 12.919922 7.5561425 12.906587 7.3378906 12.886719 z "
       transform="matrix(0.26458333,0,0,0.26458333,0,292.76667)"
       id="rect1415" />
    <path
       style="opacity:1;fill:#bebebe;fill-opacity:1;stroke:none;stroke-width:1.33703959"
       d="M 4.84375 12.185547 L 1.8242188 14.888672 C 1.6898436 15.008915 1.6608109 15.194105 1.7597656 15.304688 L 2.2871094 15.894531 C 2.3860641 16.005113 2.5746092 15.997196 2.7089844 15.876953 L 6.1757812 12.773438 C 6.2018002 12.750155 6.204732 12.718584 6.2226562 12.691406 C 5.7411179 12.569261 5.2811975 12.399021 4.84375 12.185547 z "
       transform="matrix(0.26458333,0,0,0.26458333,0,292.76667)"
       id="rect1417" />
    <path
       style="opacity:1;fill:#bebebe;fill-opacity:1;stroke:none;stroke-width:1.33703959"
       d="M 11.15625 12.185547 C 10.718803 12.399021 10.258882 12.569261 9.7773438 12.691406 C 9.795268 12.718584 9.7981998 12.750155 9.8242188 12.773438 L 13.291016 15.876953 C 13.425391 15.997196 13.613936 16.005113 13.712891 15.894531 L 14.240234 15.304688 C 14.339189 15.194105 14.310156 15.008915 14.175781 14.888672 L 11.15625 12.185547 z "
       transform="matrix(0.26458333,0,0,0.26458333,0,292.76667)"
       id="rect1421" />
  </g>
</svg>
